packages/core/assets/Icons/language.svg

<svg viewBox="0 0 20 20" fill="none" xmlns="http://www.w3.org/2000/svg">
<path d="M9.99984 18.3333C8.86095 18.3333 7.78456 18.1145 6.77067 17.677C5.75678 17.2395 4.87136 16.6423 4.11442 15.8854C3.35748 15.1284 2.76025 14.243 2.32275 13.2291C1.88525 12.2152 1.6665 11.1388 1.6665 9.99996C1.6665 8.84718 1.88525 7.76732 2.32275 6.76038C2.76025 5.75343 3.35748 4.87149 4.11442 4.11454C4.87136 3.3576 5.75678 2.76038 6.77067 2.32288C7.78456 1.88538 8.86095 1.66663 9.99984 1.66663C11.1526 1.66663 12.2325 1.88538 13.2394 2.32288C14.2464 2.76038 15.1283 3.3576 15.8853 4.11454C16.6422 4.87149 17.2394 5.75343 17.6769 6.76038C18.1144 7.76732 18.3332 8.84718 18.3332 9.99996C18.3332 11.1388 18.1144 12.2152 17.6769 13.2291C17.2394 14.243 16.6422 15.1284 15.8853 15.8854C15.1283 16.6423 14.2464 17.2395 13.2394 17.677C12.2325 18.1145 11.1526 18.3333 9.99984 18.3333ZM9.99984 16.625C10.3609 16.125 10.6734 15.6041 10.9373 15.0625C11.2012 14.5208 11.4165 13.9444 11.5832 13.3333H8.4165C8.58317 13.9444 8.79845 14.5208 9.06234 15.0625C9.32623 15.6041 9.63873 16.125 9.99984 16.625ZM7.83317 16.2916C7.58317 15.8333 7.36442 15.3576 7.17692 14.8645C6.98942 14.3715 6.83317 13.8611 6.70817 13.3333H4.24984C4.65261 14.0277 5.15609 14.6319 5.76025 15.1458C6.36442 15.6597 7.05539 16.0416 7.83317 16.2916ZM12.1665 16.2916C12.9443 16.0416 13.6353 15.6597 14.2394 15.1458C14.8436 14.6319 15.3471 14.0277 15.7498 13.3333H13.2915C13.1665 13.8611 13.0103 14.3715 12.8228 14.8645C12.6353 15.3576 12.4165 15.8333 12.1665 16.2916ZM3.5415 11.6666H6.37484C6.33317 11.3888 6.30192 11.1145 6.28109 10.8437C6.26025 10.5729 6.24984 10.2916 6.24984 9.99996C6.24984 9.70829 6.26025 9.42704 6.28109 9.15621C6.30192 8.88538 6.33317 8.61107 6.37484 8.33329H3.5415C3.47206 8.61107 3.41998 8.88538 3.38525 9.15621C3.35053 9.42704 3.33317 9.70829 3.33317 9.99996C3.33317 10.2916 3.35053 10.5729 3.38525 10.8437C3.41998 11.1145 3.47206 11.3888 3.5415 11.6666ZM8.0415 11.6666H11.9582C11.9998 11.3888 12.0311 11.1145 12.0519 10.8437C12.0728 10.5729 12.0832 10.2916 12.0832 9.99996C12.0832 9.70829 12.0728 9.42704 12.0519 9.15621C12.0311 8.88538 11.9998 8.61107 11.9582 8.33329H8.0415C7.99984 8.61107 7.96859 8.88538 7.94775 9.15621C7.92692 9.42704 7.9165 9.70829 7.9165 9.99996C7.9165 10.2916 7.92692 10.5729 7.94775 10.8437C7.96859 11.1145 7.99984 11.3888 8.0415 11.6666ZM13.6248 11.6666H16.4582C16.5276 11.3888 16.5797 11.1145 16.6144 10.8437C16.6491 10.5729 16.6665 10.2916 16.6665 9.99996C16.6665 9.70829 16.6491 9.42704 16.6144 9.15621C16.5797 8.88538 16.5276 8.61107 16.4582 8.33329H13.6248C13.6665 8.61107 13.6978 8.88538 13.7186 9.15621C13.7394 9.42704 13.7498 9.70829 13.7498 9.99996C13.7498 10.2916 13.7394 10.5729 13.7186 10.8437C13.6978 11.1145 13.6665 11.3888 13.6248 11.6666ZM13.2915 6.66663H15.7498C15.3471 5.97218 14.8436 5.36801 14.2394 4.85413C13.6353 4.34024 12.9443 3.95829 12.1665 3.70829C12.4165 4.16663 12.6353 4.64232 12.8228 5.13538C13.0103 5.62843 13.1665 6.13885 13.2915 6.66663ZM8.4165 6.66663H11.5832C11.4165 6.05551 11.2012 5.47913 10.9373 4.93746C10.6734 4.39579 10.3609 3.87496 9.99984 3.37496C9.63873 3.87496 9.32623 4.39579 9.06234 4.93746C8.79845 5.47913 8.58317 6.05551 8.4165 6.66663ZM4.24984 6.66663H6.70817C6.83317 6.13885 6.98942 5.62843 7.17692 5.13538C7.36442 4.64232 7.58317 4.16663 7.83317 3.70829C7.05539 3.95829 6.36442 4.34024 5.76025 4.85413C5.15609 5.36801 4.65261 5.97218 4.24984 6.66663Z" fill="currentColor"/>
</svg>

<svg xmlns="http://www.w3.org/2000/svg" width="20" height="20" fill="none" viewBox="0 0 20 20">
  <path fill="#201F1F" d="M10 18.333a8.063 8.063 0 0 1-3.23-.656 8.453 8.453 0 0 1-2.656-1.792 8.453 8.453 0 0 1-1.791-2.656A8.063 8.063 0 0 1 1.667 10a8.04 8.04 0 0 1 .656-3.24 8.486 8.486 0 0 1 1.791-2.645 8.453 8.453 0 0 1 2.657-1.792A8.063 8.063 0 0 1 10 1.667a8.04 8.04 0 0 1 3.24.656 8.486 8.486 0 0 1 2.645 1.792 8.486 8.486 0 0 1 1.792 2.645 8.04 8.04 0 0 1 .656 3.24 8.063 8.063 0 0 1-.656 3.23 8.454 8.454 0 0 1-1.792 2.655 8.487 8.487 0 0 1-2.646 1.792 8.04 8.04 0 0 1-3.24.656Zm0-1.708c.36-.5.673-1.02.937-1.563.264-.541.48-1.118.646-1.729H8.416c.167.611.382 1.188.646 1.73.264.541.577 1.062.938 1.562Zm-2.167-.333c-.25-.459-.469-.934-.656-1.428a12.232 12.232 0 0 1-.469-1.53H4.25a6.916 6.916 0 0 0 1.51 1.812 5.996 5.996 0 0 0 2.073 1.146Zm4.333 0a5.995 5.995 0 0 0 2.073-1.146 6.914 6.914 0 0 0 1.51-1.813h-2.458a12.232 12.232 0 0 1-.468 1.531c-.188.494-.407.97-.657 1.428Zm-8.625-4.625h2.834a11.003 11.003 0 0 1-.094-2.51c.02-.272.052-.546.094-.824H3.542A6.633 6.633 0 0 0 3.333 10a6.633 6.633 0 0 0 .208 1.667Zm4.5 0h3.917a10.972 10.972 0 0 0 .094-2.51 10.83 10.83 0 0 0-.094-.824H8.041a11.009 11.009 0 0 0-.094 2.51c.022.271.053.546.094.824Zm5.584 0h2.833A6.637 6.637 0 0 0 16.666 10a6.637 6.637 0 0 0-.208-1.667h-2.833a11.024 11.024 0 0 1 .094 2.51 12.02 12.02 0 0 1-.094.824Zm-.334-5h2.459a6.913 6.913 0 0 0-1.51-1.813 5.995 5.995 0 0 0-2.074-1.146c.25.459.47.934.657 1.427.187.493.343 1.004.468 1.532Zm-4.875 0h3.167a9.866 9.866 0 0 0-.646-1.73A10.585 10.585 0 0 0 10 3.375c-.361.5-.674 1.02-.938 1.562a9.864 9.864 0 0 0-.646 1.73Zm-4.166 0h2.458c.125-.528.281-1.039.469-1.532.187-.493.406-.968.656-1.427A5.996 5.996 0 0 0 5.76 4.854a6.915 6.915 0 0 0-1.51 1.813Z"/>
</svg>
